components/icon/svg/24/action_document.svg

<?xml version="1.0" encoding="UTF-8"?>
<svg width="24px" height="24px" viewBox="0 0 24 24" version="1.1" xmlns="http://www.w3.org/2000/svg" xmlns:xlink="http://www.w3.org/1999/xlink">
    <!-- Generator: Sketch 64 (93537) - https://sketch.com -->
    <title>ic-db_action_document_24</title>
    <desc>Created with Sketch.</desc>
    <g id="Symbols:Icon" stroke="none" stroke-width="1" fill="none" fill-rule="evenodd">
        <g id="24dp-Icon/Action/Document" fill="#282D37">
            <path d="M14,2 C14.28125,2 14.53125,2.09375 14.71875,2.3125 L14.71875,2.3125 L18.71875,6.3125 C18.90625,6.5 19,6.71875 19,7 L19,7 L19,21 C19,21.5625 18.5625,22 18,22 L18,22 L6,22 C5.4375,22 5,21.5625 5,21 L5,21 L5,3 C5,2.4375 5.4375,2 6,2 L6,2 Z M12,4 L7,4 L7,20 L17,20 L17,9 L13,9 C12.4375,9 12,8.53125 12,8 L12,8 L12,4 Z M14,4.40625 L14,7 L16.59375,7 L14,4.40625 Z M14,16 L10,16 C9.4375,16 9,16.4375 9,17 C9,17.5625 9.4375,18 10,18 L14,18 C14.5625,18 15,17.5625 15,17 C15,16.4375 14.5625,16 14,16 Z M14,12 L10,12 C9.4375,12 9,12.4375 9,13 C9,13.5625 9.4375,14 10,14 L14,14 C14.5625,14 15,13.5625 15,13 C15,12.4375 14.5625,12 14,12 Z" id="🎨-Color"></path>
        </g>
    </g>
</svg>

<svg width="24" height="24" xmlns="http://www.w3.org/2000/svg"><path d="M14 2c.281 0 .531.094.719.313l4 4A.919.919 0 0119 7v14c0 .563-.438 1-1 1H6c-.563 0-1-.438-1-1V3c0-.563.438-1 1-1zm-2 2H7v16h10V9h-4c-.563 0-1-.469-1-1V4zm2 .406V7h2.594L14 4.406zM14 16h-4c-.563 0-1 .438-1 1 0 .563.438 1 1 1h4c.563 0 1-.438 1-1 0-.563-.438-1-1-1zm0-4h-4c-.563 0-1 .438-1 1 0 .563.438 1 1 1h4c.563 0 1-.438 1-1 0-.563-.438-1-1-1z" fill="#282D37" fill-rule="evenodd"/></svg>
